archive-clock.svg

<svg fill="currentColor" viewBox="0 0 24 24"><path d="M20 6H2V2h18zm-3.5 6H15v5l3.61 2.16.75-1.22-2.86-1.69zm6.5 4c0 3.87-3.13 7-7 7-2.38 0-4.47-1.19-5.74-3H3V7h16v2.68c2.36 1.13 4 3.53 4 6.32M8 12h2.26c.57-.81 1.3-1.5 2.15-2H8.5c-.28 0-.5.22-.5.5zm13 4c0-2.76-2.24-5-5-5s-5 2.24-5 5 2.24 5 5 5 5-2.24 5-5"/></svg>

<svg  viewBox="0 0 24 24" fill="currentColor"><path  d="M20 6H2V2H20V6M16.5 12H15V17L18.61 19.16L19.36 17.94L16.5 16.25V12M23 16C23 19.87 19.87 23 16 23C13.62 23 11.53 21.81 10.26 20H3V7H19V9.68C21.36 10.81 23 13.21 23 16M8 12H10.26C10.83 11.19 11.56 10.5 12.41 10H8.5C8.22 10 8 10.22 8 10.5V12M21 16C21 13.24 18.76 11 16 11S11 13.24 11 16 13.24 21 16 21 21 18.76 21 16Z"/></svg>
